src/assets/Devices/Legion Go Front-dpad.svg

<svg width="1761" height="773" viewBox="0 0 1761 773" fill="none" xmlns="http://www.w3.org/2000/svg">
<rect opacity="0.2" x="279.498" y="18.0508" width="1199.83" height="739.041" rx="29.5" stroke="white"/>
<rect opacity="0.2" x="327.652" y="42.6914" width="1104.29" height="689.758" rx="11.5" stroke="white"/>
<rect opacity="0.2" x="269.52" y="7.53125" width="1220.6" height="760.08" rx="11.5" stroke="white"/>
<circle opacity="0.2" cx="1455.12" cy="415.58" r="9.5" stroke="white"/>
<path opacity="0.2" d="M1490.73 28.9718C1490.73 24.3462 1490.73 20.914 1491 18.2514C1491.26 15.5943 1491.78 13.7679 1492.78 12.3277C1494.03 10.5186 1495.78 9.10716 1497.81 8.26091C1499.43 7.58722 1501.32 7.46048 1503.98 7.75994C1506.64 8.06 1509.99 8.77897 1514.52 9.74867L1609.24 30.0586C1636.63 35.9299 1657.14 40.3274 1673.26 45.2178C1689.38 50.1061 1701.07 55.4766 1710.85 63.2745C1722.97 72.9457 1732.83 85.1469 1739.75 99.0257C1745.32 110.216 1748.12 122.78 1749.52 139.564C1750.92 156.354 1750.92 177.329 1750.92 205.335V561.388C1750.92 605.713 1750.91 627.724 1742.76 646.266C1737.69 657.784 1730.42 668.201 1721.36 676.929C1706.77 690.98 1686.11 698.583 1644.51 713.874L1517.18 760.675C1512.24 762.492 1508.56 763.84 1505.64 764.588C1502.73 765.334 1500.63 765.46 1498.82 764.896C1496.55 764.19 1494.55 762.797 1493.11 760.91C1491.95 759.404 1491.35 757.393 1491.04 754.397C1490.73 751.397 1490.73 747.487 1490.73 742.222V28.9718Z" stroke="white"/>
<path opacity="0.2" d="M1501.68 755.753V15.73L1613.75 40.8687C1638.55 46.4331 1657.13 50.6001 1671.73 55.1728C1686.32 59.7432 1696.91 64.7082 1705.75 71.8495C1716.71 80.71 1725.62 91.8423 1731.87 104.479C1736.9 114.664 1739.43 126.081 1740.7 141.321C1741.96 156.569 1741.96 175.606 1741.96 201.029V557.524C1741.96 600.465 1741.95 621.783 1734.06 639.743C1729.15 650.901 1722.11 660.992 1713.33 669.449C1699.2 683.061 1679.2 690.432 1638.9 705.26L1501.68 755.753Z" stroke="white"/>
<path opacity="0.2" d="M1751.33 284.591L1760.25 277.213V206.549C1760.25 147.072 1760.25 117.334 1748.29 93.4466C1740.89 78.6697 1730.34 65.6961 1717.38 55.4404C1696.43 38.8614 1667.31 32.8039 1609.08 20.6888L1515.36 1.18969C1514.23 0.954452 1513.17 0.734008 1512.18 0.53125L1501.18 7.28864C1504.24 7.23365 1508.32 8.10716 1514.53 9.43898L1609.25 29.749C1664.01 41.488 1691.38 47.3575 1711.07 63.0629C1723.24 72.7795 1733.15 85.038 1740.1 98.9819C1751.33 121.52 1751.33 149.518 1751.33 205.514V284.591Z" stroke="white"/>
<path opacity="0.2" d="M1751.42 437.341V284.591L1760.17 293.091V427.091L1751.42 437.341Z" stroke="white"/>
<g opacity="0.2">
<circle cx="1571.6" cy="318.515" r="66.7766" stroke="white"/>
<circle cx="1571.75" cy="318.29" r="50.417" stroke="white" stroke-width="3"/>
<circle cx="1571.75" cy="318.289" r="45.7698" stroke="white"/>
</g>
<g opacity="0.2">
<rect x="1507.37" y="417.258" width="160.419" height="160.419" rx="2.5" stroke="white" stroke-width="3"/>
<rect x="1501.71" y="411.602" width="171.733" height="171.733" rx="7.5" stroke="white"/>
</g>
<path opacity="0.2" d="M1583.75 62.2997L1570.97 58.973L1551.67 78.1987L1532.37 97.4244L1535.65 110.216L1548.43 113.543L1587.03 75.0917L1583.75 62.2997Z" stroke="white"/>
<g opacity="0.2">
<circle cx="1656.55" cy="120.658" r="26.0757" stroke="white" stroke-width="3"/>
<circle cx="1605.94" cy="170.744" r="26.0757" stroke="white" stroke-width="3"/>
<circle cx="1707.7" cy="171.671" r="26.0757" stroke="white" stroke-width="3"/>
<circle cx="1656.55" cy="222.574" r="26.0757" stroke="white" stroke-width="3"/>
<path d="M1595.3 184.037L1604 169.412H1604.83L1611.02 158.443H1615.67L1607.52 172.436H1606.73L1600.03 184.037H1595.3ZM1595.72 158.443L1601.05 158.461L1607.34 169.412H1607.39L1616.13 184.037H1610.77L1604.04 172.453H1603.98L1595.72 158.443Z" fill="white"/>
<path d="M1654.79 133.453V123.803L1646.42 107.859H1651.64L1656.57 117.492C1656.72 117.809 1656.86 118.107 1656.99 118.389C1657.12 118.658 1657.24 118.945 1657.36 119.25H1657.45C1657.56 118.945 1657.68 118.658 1657.8 118.389C1657.93 118.107 1658.07 117.809 1658.24 117.492L1663.18 107.859H1667.89L1659.59 123.697V133.453H1654.79Z" fill="white"/>
<path d="M1700.11 185.037V159.443H1709.28C1711.85 159.443 1713.82 159.994 1715.19 161.096C1716.57 162.186 1717.26 163.838 1717.26 166.053C1717.26 167.494 1716.94 168.684 1716.29 169.621C1715.66 170.559 1714.85 171.197 1713.87 171.537V171.607C1715.09 171.947 1716.08 172.639 1716.86 173.682C1717.64 174.713 1718.04 176.09 1718.04 177.812C1718.04 180.098 1717.29 181.873 1715.79 183.139C1714.3 184.404 1712.29 185.037 1709.76 185.037H1700.11ZM1704.78 181.645H1709.18C1710.58 181.645 1711.61 181.275 1712.27 180.537C1712.94 179.787 1713.27 178.779 1713.27 177.514C1713.27 176.248 1712.94 175.24 1712.27 174.49C1711.61 173.74 1710.58 173.365 1709.18 173.365H1704.78V181.645ZM1704.78 170.324H1708.72C1710.1 170.324 1711.1 169.996 1711.71 169.34C1712.33 168.684 1712.64 167.758 1712.64 166.562C1712.64 165.379 1712.33 164.477 1711.71 163.855C1711.1 163.234 1710.1 162.918 1708.72 162.906H1704.78V170.324Z" fill="white"/>
<path d="M1645.27 234.939L1654.09 209.275H1659.26L1668.08 234.939H1663.2L1657.13 216.359C1656.99 215.926 1656.87 215.533 1656.78 215.182C1656.69 214.818 1656.6 214.467 1656.52 214.127H1656.41C1656.34 214.467 1656.25 214.818 1656.15 215.182C1656.05 215.533 1655.94 215.926 1655.81 216.359L1649.84 234.939H1645.27ZM1649.85 229.033L1650.8 225.605H1662.32L1663.3 229.033H1649.85Z" fill="white"/>
</g>
<path opacity="0.2" d="M269.52 29.0196C269.52 24.3941 269.519 20.9619 269.255 18.2993C268.992 15.6421 268.47 13.8158 267.473 12.3756C266.219 10.5665 264.473 9.15501 262.441 8.30876C260.824 7.63507 258.929 7.50833 256.276 7.80779C253.617 8.10785 250.261 8.82682 245.738 9.79652L151.01 30.1065C123.626 35.9778 103.118 40.3752 86.9942 45.2657C70.8776 50.154 59.1792 55.5245 49.4063 63.3224C37.2857 72.9935 27.4232 85.1948 20.5079 99.0735C14.932 110.264 12.1333 122.828 10.7323 139.612C9.33072 156.402 9.33032 177.377 9.33032 205.383V561.436C9.33032 605.761 9.34055 627.771 17.495 646.314C22.5605 657.832 29.8297 668.249 38.8935 676.977C53.4845 691.028 74.1398 698.63 115.744 713.922L243.077 760.723C248.019 762.54 251.689 763.888 254.61 764.635C257.528 765.382 259.624 765.508 261.436 764.944C263.706 764.238 265.702 762.845 267.148 760.958C268.302 759.452 268.907 757.441 269.213 754.445C269.519 751.445 269.52 747.535 269.52 742.27V29.0196Z" stroke="white"/>
<path opacity="0.2" d="M258.576 755.801V15.7779L146.505 40.9166C121.698 46.4809 103.123 50.648 88.5217 55.2206C73.9279 59.7911 63.3418 64.7561 54.5054 71.8974C43.5419 80.7578 34.63 91.8902 28.384 104.527C23.3498 114.712 20.8222 126.128 19.5567 141.369C18.2907 156.617 18.2903 175.654 18.2903 201.077V557.572C18.2903 600.513 18.3005 621.83 26.1966 639.791C31.1018 650.949 38.1412 661.04 46.9187 669.496C61.048 683.109 81.0509 690.48 121.35 705.308L258.576 755.801Z" stroke="white"/>
<g opacity="0.2">
<circle cx="67.2766" cy="67.2766" r="66.7766" transform="matrix(-1 0 0 1 167.711 107.287)" stroke="white"/>
<circle cx="51.917" cy="51.917" r="50.417" transform="matrix(-1 0 0 1 152.193 122.422)" stroke="white" stroke-width="3"/>
<circle cx="46.2698" cy="46.2698" r="45.7698" transform="matrix(-1 0 0 1 146.547 128.068)" stroke="white"/>
</g>
<path opacity="0.2" d="M176.505 62.3486L189.285 59.0219L208.581 78.2475L227.878 97.4732L224.598 110.265L211.818 113.592L173.225 75.1405L176.505 62.3486Z" stroke="white"/>
<path opacity="0.2" d="M147.127 487.365L153.833 475.988H181.072H208.311L215.017 487.365L208.311 498.741H153.833L147.127 487.365Z" stroke="white"/>
<path opacity="0.2" d="M147.127 571.855L153.833 560.478H181.072H208.311L215.017 571.855L208.311 583.231H153.833L147.127 571.855Z" stroke="white"/>
<path opacity="0.2" d="M9.83968 146.655L1.5 136.647C2.99701 118.819 5.98802 105.427 11.964 93.4954C19.365 78.7186 29.9172 65.745 42.8767 55.4892C63.8264 38.9102 92.9411 32.8527 151.171 20.7377L244.891 1.23852C246.022 1.00328 247.081 0.782836 248.076 0.580078L259.077 7.33747C256.012 7.28248 251.937 8.15598 245.726 9.4878L150.998 29.7978C96.246 41.5368 68.87 47.4064 49.187 63.1117C37.0095 72.8283 27.1006 85.0868 20.1529 99.0307C13.7946 111.791 11.0363 126.303 9.83968 146.655Z" stroke="white"/>
<path d="M196.734 245.625C202.533 245.625 207.234 250.326 207.234 256.125V288.25C207.234 290.183 208.801 291.75 210.734 291.75H242.859C248.658 291.75 253.359 296.451 253.359 302.25V333.75C253.359 339.549 248.658 344.25 242.859 344.25H210.734C208.801 344.25 207.234 345.817 207.234 347.75V379.875C207.234 385.674 202.533 390.375 196.734 390.375H165.234C159.435 390.375 154.734 385.674 154.734 379.875V347.75C154.734 345.817 153.167 344.25 151.234 344.25H119.109C113.31 344.25 108.609 339.549 108.609 333.75V302.25C108.609 296.451 113.31 291.75 119.109 291.75H151.234C153.167 291.75 154.734 290.183 154.734 288.25V256.125C154.734 250.326 159.435 245.625 165.234 245.625H196.734Z" stroke="white"/>
<path d="M197.484 252.605C199.141 252.605 200.484 253.949 200.484 255.605V289.5C200.484 294.471 204.514 298.5 209.484 298.5H243.379C245.036 298.5 246.379 299.843 246.379 301.5V334.5C246.379 336.157 245.036 337.5 243.379 337.5H209.484C204.514 337.5 200.484 341.529 200.484 346.5V380.395C200.484 382.051 199.141 383.395 197.484 383.395H164.484C162.828 383.395 161.484 382.051 161.484 380.395V346.5C161.484 341.529 157.455 337.5 152.484 337.5H118.59C116.933 337.5 115.59 336.157 115.59 334.5V301.5C115.59 299.843 116.933 298.5 118.59 298.5H152.484C157.455 298.5 161.484 294.471 161.484 289.5V255.605C161.484 253.949 162.828 252.605 164.484 252.605H197.484Z" stroke="white" stroke-width="6"/>
<path opacity="0.2" d="M266.365 16.3339L272.266 16.3476C272.465 15.2778 272.743 14.5352 273.101 13.9303C273.872 12.6255 274.961 11.5367 276.266 10.765L274.743 8.1904L276.266 10.765C277.139 10.2488 278.3 9.89711 280.348 9.70788C282.438 9.51471 285.137 9.51172 289.007 9.51172H1470.29C1474.16 9.51172 1476.86 9.51471 1478.95 9.70788C1481 9.89711 1482.16 10.2489 1483.03 10.765C1484.34 11.5367 1485.43 12.6255 1486.2 13.9304C1486.75 14.8637 1487.11 16.1219 1487.29 18.433L1493.27 18.452C1493.51 15.6715 1493.98 14.2276 1494.67 13.2323C1495.65 11.8165 1497.01 10.7119 1498.6 10.0496C1499.65 9.6129 1501.05 9.44579 1503.53 9.72507C1506.03 10.008 1509.25 10.6935 1513.82 11.674L1608.55 31.984C1635.97 37.864 1656.36 42.2379 1672.36 47.0911C1688.32 51.9313 1699.69 57.1855 1709.12 64.7096C1720.95 74.1537 1730.58 86.0686 1737.34 99.6215C1742.72 110.419 1745.47 122.635 1746.86 139.253C1748.25 155.915 1748.25 176.768 1748.25 204.816V560.869C1748.25 605.43 1748.19 626.795 1740.3 644.74C1735.36 655.961 1728.28 666.107 1719.46 674.609C1705.33 688.208 1685.3 695.636 1643.48 711.009L1516.14 757.81C1511.15 759.645 1507.62 760.938 1504.85 761.646C1502.1 762.35 1500.55 762.35 1499.39 761.99C1497.61 761.437 1496.05 760.347 1494.92 758.87C1494.19 757.922 1493.66 756.487 1493.37 753.733L1487.39 753.938C1487.26 757.379 1486.89 759.006 1486.2 760.173C1485.43 761.478 1484.34 762.566 1483.03 763.338C1482.16 763.854 1481 764.206 1478.95 764.395C1476.86 764.588 1474.16 764.591 1470.29 764.591H289.007C285.137 764.591 282.438 764.588 280.348 764.395C278.3 764.206 277.139 763.854 276.266 763.338C274.961 762.566 273.872 761.478 273.101 760.173C272.617 759.356 272.277 758.283 272.081 756.465L266.173 756.123C265.874 757.439 265.474 758.287 264.991 758.917C263.859 760.394 262.298 761.484 260.521 762.037C259.364 762.397 257.808 762.397 255.058 761.693C252.289 760.985 248.76 759.692 243.767 757.857L116.434 711.056C74.6086 695.682 54.5766 688.254 40.4555 674.656C31.6265 666.154 24.5456 656.007 19.6113 644.787C11.7195 626.842 11.6582 605.477 11.6582 560.916V204.863C11.6582 176.815 11.6606 155.962 13.0516 139.299C14.4388 122.681 17.1933 110.466 22.5734 99.6684C29.3263 86.1154 38.9574 74.2006 50.7934 64.7565C60.2231 57.2324 71.5898 51.9782 87.5478 47.138C103.549 42.2848 123.938 37.9109 151.362 32.0309L246.09 11.7209C250.663 10.7404 253.877 10.0549 256.384 9.77195C258.858 9.49266 260.26 9.65978 261.308 10.0965C262.898 10.7588 264.265 11.8634 265.245 13.2792C265.725 13.9718 266.103 14.889 266.365 16.3339Z" stroke="white" stroke-width="6"/>
<g opacity="0.2">
<rect x="177.472" y="486.86" width="11.037" height="7.42558" stroke="white" stroke-width="1.58365"/>
<path fill-rule="evenodd" clip-rule="evenodd" d="M172.584 482.584H182.037V484.942H183.621V482.584V481H182.037H172.584H171V482.584V488.426V490.009H172.584H175.417V488.426H172.584V482.584Z" fill="white"/>
</g>
<g opacity="0.2">
<path fill-rule="evenodd" clip-rule="evenodd" d="M172 566H187V567.714H172V566ZM172 571.143H187V572.857H172V571.143ZM187 576.286H172V578H187V576.286Z" fill="white"/>
</g>
</svg>

<svg width="1761" height="773" fill="none" xmlns="http://www.w3.org/2000/svg"><rect opacity=".2" x="279.499" y="18.05" width="1199.83" height="739.041" rx="29.5" stroke="#fff"/><rect opacity=".2" x="327.652" y="42.692" width="1104.29" height="689.758" rx="11.5" stroke="#fff"/><rect opacity=".2" x="269.519" y="7.531" width="1220.6" height="760.08" rx="11.5" stroke="#fff"/><circle opacity=".2" cx="1455.12" cy="415.58" r="9.5" stroke="#fff"/><path opacity=".2" d="M1490.73 28.971c0-4.625 0-8.058.27-10.72.26-2.657.78-4.484 1.78-5.924 1.25-1.809 3-3.22 5.03-4.067 1.62-.673 3.51-.8 6.17-.5 2.66.3 6.01 1.018 10.54 1.988l94.72 20.31c27.39 5.871 47.9 10.269 64.02 15.16 16.12 4.888 27.81 10.258 37.59 18.056a106.569 106.569 0 0 1 28.9 35.751c5.57 11.191 8.37 23.755 9.77 40.538 1.4 16.791 1.4 37.765 1.4 65.772v356.053c0 44.325-.01 66.335-8.16 84.877a96.632 96.632 0 0 1-21.4 30.664c-14.59 14.05-35.25 21.653-76.85 36.945l-127.33 46.801c-4.94 1.816-8.62 3.165-11.54 3.912-2.91.747-5.01.872-6.82.309a11.47 11.47 0 0 1-5.71-3.987c-1.16-1.505-1.76-3.516-2.07-6.513-.31-2.999-.31-6.909-.31-12.174V28.972Z" stroke="#fff"/><path opacity=".2" d="M1501.68 755.753V15.73l112.07 25.138c24.8 5.565 43.38 9.732 57.98 14.304 14.6 4.57 25.18 9.536 34.02 16.677a97.588 97.588 0 0 1 26.12 32.63c5.03 10.185 7.56 21.601 8.83 36.841 1.26 15.248 1.26 34.285 1.26 59.708v356.495c0 42.941-.01 64.259-7.9 82.22a93.55 93.55 0 0 1-20.73 29.705c-14.13 13.613-34.13 20.984-74.43 35.812l-137.22 50.493Z" stroke="#fff"/><path opacity=".2" d="m1751.33 284.591 8.92-7.378v-70.664c0-59.477 0-89.215-11.96-113.102a112.974 112.974 0 0 0-30.91-38.007c-20.95-16.579-50.07-22.636-108.3-34.751l-93.72-19.5c-1.13-.235-2.19-.455-3.18-.658l-11 6.758c3.06-.055 7.14.818 13.35 2.15l94.73 20.31c54.75 11.739 82.12 17.609 101.81 33.314a107.106 107.106 0 0 1 29.03 35.919c11.23 22.538 11.23 50.536 11.23 106.532v79.077Zm.09 152.75v-152.75l8.75 8.5v134l-8.75 10.25Z" stroke="#fff"/><g opacity=".2" stroke="#fff"><circle cx="1571.6" cy="318.515" r="66.777"/><circle cx="1571.75" cy="318.29" r="50.417" stroke-width="3"/><circle cx="1571.76" cy="318.289" r="45.77"/></g><g opacity=".2" stroke="#fff"><rect x="1507.37" y="417.258" width="160.419" height="160.419" rx="2.5" stroke-width="3"/><rect x="1501.71" y="411.602" width="171.733" height="171.733" rx="7.5"/></g><path opacity=".2" d="m1583.75 62.3-12.78-3.326-19.3 19.225-19.3 19.226 3.28 12.792 12.78 3.327 38.6-38.452-3.28-12.792Z" stroke="#fff"/><g opacity=".2"><circle cx="1656.55" cy="120.658" r="26.076" stroke="#fff" stroke-width="3"/><circle cx="1605.94" cy="170.744" r="26.076" stroke="#fff" stroke-width="3"/><circle cx="1707.7" cy="171.671" r="26.076" stroke="#fff" stroke-width="3"/><circle cx="1656.55" cy="222.574" r="26.076" stroke="#fff" stroke-width="3"/><path d="m1595.3 184.037 8.7-14.625h.83l6.19-10.969h4.65l-8.15 13.993h-.79l-6.7 11.601h-4.73Zm.42-25.594 5.33.018 6.29 10.951h.05l8.74 14.625h-5.36l-6.73-11.584h-.06l-8.26-14.01Zm59.07-24.99v-9.65l-8.37-15.944h5.22l4.93 9.633c.15.317.29.615.42.897.13.269.25.556.37.861h.09c.11-.305.23-.592.35-.861.13-.282.27-.58.44-.897l4.94-9.633h4.71l-8.3 15.838v9.756h-4.8Zm45.31 51.584v-25.594h9.18c2.57 0 4.54.551 5.91 1.653 1.38 1.09 2.07 2.742 2.07 4.957 0 1.441-.32 2.631-.97 3.568-.63.938-1.44 1.576-2.42 1.916v.07c1.22.34 2.21 1.032 2.99 2.075.78 1.031 1.17 2.408 1.17 4.13 0 2.286-.75 4.061-2.25 5.327-1.48 1.265-3.49 1.898-6.03 1.898h-9.65Zm4.68-3.392h4.39c1.41 0 2.44-.37 3.1-1.108.67-.75 1-1.758 1-3.023 0-1.266-.33-2.274-1-3.024-.66-.75-1.69-1.125-3.1-1.125h-4.39v8.28Zm0-11.321h3.94c1.38 0 2.38-.328 2.99-.984.62-.656.93-1.582.93-2.778 0-1.183-.31-2.085-.93-2.707-.61-.621-1.61-.937-2.99-.949h-3.94v7.418Zm-59.51 64.615 8.82-25.664h5.17l8.82 25.664h-4.88l-6.07-18.58c-.14-.433-.26-.826-.35-1.177-.09-.364-.18-.715-.26-1.055h-.11c-.07.34-.16.691-.26 1.055-.1.351-.21.744-.34 1.177l-5.97 18.58h-4.57Zm4.58-5.906.95-3.428h11.52l.98 3.428h-13.45Z" fill="#fff"/></g><path opacity=".2" d="M269.519 29.02c0-4.626-.001-8.058-.265-10.72-.263-2.658-.785-4.484-1.782-5.924-1.254-1.81-3-3.221-5.032-4.067-1.617-.674-3.512-.8-6.165-.501-2.659.3-6.015 1.019-10.538 1.989l-94.728 20.31c-27.384 5.87-47.892 10.268-64.016 15.159-16.116 4.888-27.815 10.259-37.588 18.056a106.499 106.499 0 0 0-28.898 35.751c-5.576 11.191-8.375 23.755-9.776 40.539-1.401 16.79-1.402 37.765-1.402 65.771v356.053c0 44.325.01 66.335 8.165 84.878a96.504 96.504 0 0 0 21.398 30.663c14.591 14.051 35.247 21.653 76.851 36.945l127.333 46.801c4.942 1.817 8.612 3.165 11.533 3.912 2.918.747 5.014.873 6.826.309a11.5 11.5 0 0 0 5.712-3.986c1.154-1.506 1.759-3.517 2.065-6.513.306-3 .307-6.91.307-12.175V29.02Z" stroke="#fff"/><path opacity=".2" d="M258.577 755.801V15.778L146.505 40.917c-24.806 5.564-43.382 9.731-57.983 14.304-14.594 4.57-25.18 9.535-34.016 16.676a97.5 97.5 0 0 0-26.122 32.63c-5.034 10.185-7.561 21.601-8.827 36.842-1.266 15.248-1.266 34.285-1.266 59.708v356.495c0 42.941.01 64.258 7.906 82.219a93.492 93.492 0 0 0 20.722 29.705c14.13 13.613 34.132 20.984 74.432 35.812l137.226 50.493Z" stroke="#fff"/><g opacity=".2" stroke="#fff"><circle cx="67.277" cy="67.277" r="66.777" transform="matrix(-1 0 0 1 167.712 107.287)"/><circle cx="51.917" cy="51.917" r="50.417" transform="matrix(-1 0 0 1 152.194 122.422)" stroke-width="3"/><circle cx="46.27" cy="46.27" r="45.77" transform="matrix(-1 0 0 1 146.547 128.068)"/></g><path opacity=".2" d="m176.506 62.349 12.78-3.327 19.296 19.226 19.297 19.225-3.28 12.792-12.78 3.327-38.593-38.451 3.28-12.792Zm-29.379 425.016 6.706-11.377h54.478l6.706 11.377-6.706 11.376h-54.478l-6.706-11.376Zm0 84.49 6.706-11.377h54.478l6.706 11.377-6.706 11.376h-54.478l-6.706-11.376ZM9.84 146.654 1.5 136.646c1.497-17.828 4.488-31.219 10.464-43.151a113.001 113.001 0 0 1 30.913-38.006c20.95-16.58 50.064-22.637 108.294-34.752l93.72-19.499c1.131-.235 2.19-.456 3.185-.658l11.001 6.757c-3.065-.055-7.14.819-13.351 2.15l-94.728 20.31C96.246 41.537 68.87 47.406 49.187 63.111a106.999 106.999 0 0 0-29.034 35.92c-6.358 12.76-9.117 27.271-10.313 47.623Z" stroke="#fff"/><path d="M196.734 245.625c5.799 0 10.5 4.701 10.5 10.5v32.125a3.5 3.5 0 0 0 3.5 3.5h32.125c5.799 0 10.5 4.701 10.5 10.5v31.5c0 5.799-4.701 10.5-10.5 10.5h-32.125a3.5 3.5 0 0 0-3.5 3.5v32.125c0 5.799-4.701 10.5-10.5 10.5h-31.5c-5.799 0-10.5-4.701-10.5-10.5V347.75a3.5 3.5 0 0 0-3.5-3.5h-32.125c-5.799 0-10.5-4.701-10.5-10.5v-31.5c0-5.799 4.701-10.5 10.5-10.5h32.125a3.5 3.5 0 0 0 3.5-3.5v-32.125c0-5.799 4.701-10.5 10.5-10.5h31.5Z" stroke="#fff"/><path d="M197.484 252.605a3 3 0 0 1 3 3V289.5a9 9 0 0 0 9 9h33.895a3 3 0 0 1 3 3v33a3 3 0 0 1-3 3h-33.895a9 9 0 0 0-9 9v33.895a3 3 0 0 1-3 3h-33c-1.656 0-3-1.344-3-3V346.5a9 9 0 0 0-9-9H118.59a3 3 0 0 1-3-3v-33a3 3 0 0 1 3-3h33.894a9 9 0 0 0 9-9v-33.895c0-1.656 1.344-3 3-3h33Z" stroke="#fff" stroke-width="6"/><path opacity=".2" d="m266.366 16.334 5.901.014c.199-1.07.477-1.813.835-2.418a8.993 8.993 0 0 1 3.165-3.165l-1.523-2.575 1.523 2.575c.873-.516 2.034-.868 4.082-1.057 2.09-.193 4.789-.196 8.659-.196H1470.29c3.87 0 6.57.003 8.66.196 2.05.19 3.21.54 4.08 1.057 1.31.772 2.4 1.86 3.17 3.165.55.934.91 2.192 1.09 4.503l5.98.019c.24-2.78.71-4.224 1.4-5.22a8.975 8.975 0 0 1 3.93-3.182c1.05-.437 2.45-.604 4.93-.325 2.5.283 5.72.969 10.29 1.949l94.73 20.31c27.42 5.88 47.81 10.254 63.81 15.107 15.96 4.84 27.33 10.094 36.76 17.619a104.037 104.037 0 0 1 28.22 34.912c5.38 10.797 8.13 23.013 9.52 39.631 1.39 16.662 1.39 37.515 1.39 65.563v356.053c0 44.561-.06 65.926-7.95 83.871a93.893 93.893 0 0 1-20.84 29.869c-14.12 13.599-34.16 21.027-75.98 36.4l-127.34 46.801c-4.99 1.835-8.52 3.128-11.29 3.836-2.75.704-4.3.704-5.46.344a8.98 8.98 0 0 1-4.47-3.12c-.73-.948-1.26-2.383-1.55-5.137l-5.98.205c-.13 3.441-.5 5.068-1.19 6.235a8.958 8.958 0 0 1-3.17 3.165c-.87.516-2.03.868-4.08 1.057-2.09.193-4.79.196-8.66.196H289.008c-3.87 0-6.569-.003-8.659-.196-2.048-.189-3.209-.541-4.082-1.057a8.993 8.993 0 0 1-3.165-3.165c-.484-.817-.824-1.89-1.02-3.708l-5.908-.342c-.299 1.316-.699 2.164-1.182 2.794a9.001 9.001 0 0 1-4.47 3.12c-1.157.36-2.713.36-5.464-.344-2.768-.708-6.297-2.001-11.29-3.836l-127.333-46.801c-41.825-15.374-61.857-22.802-75.978-36.4a94 94 0 0 1-20.845-29.869c-7.891-17.945-7.953-39.31-7.953-83.871V204.863c0-28.048.003-48.901 1.393-65.564 1.388-16.618 4.142-28.833 9.522-39.63a103.999 103.999 0 0 1 28.22-34.912c9.43-7.525 20.797-12.779 36.755-17.619 16.001-4.853 36.39-9.227 63.814-15.107l94.728-20.31c4.573-.98 7.787-1.666 10.294-1.949 2.474-.28 3.875-.112 4.924.325a8.994 8.994 0 0 1 3.937 3.182c.48.693.858 1.61 1.12 3.055Z" stroke="#fff" stroke-width="6"/></svg>
